X:26004
T:Zither Carol
R:Irregular
C:Trad.
O:Czech
Z:Paul Hardy's Xmas Tunebook 2019 (see www.paulhardy.net). Creative Commons cc by-nc-sa licenced.
M:3/4
L:1/8
Q:1/2=60
K:G
[M:2/4]"G"GA G2|Bc B2|de d2|[M:3/4]"D7"e2 F2 F2|"A7"AG FE "D"D2|[M:2/4]"G"GA G2|Bc B2|de d2|[M:3/4]"D7"e2 F2 F2|"G"G6|
"C"ef g2 fe|"G"e2 d2 d2|"C"cd e2 dc|"G"c2 B2 B2|"D"AB A2 BA|"G"G2 B2 d2|"D7"e2 F2 F2|"G"G6|]
W:Girls and boys, leave your toys. Make no noise,
W:Kneel at His crib and worship Him.
W:At Thy shrine, Child divine, we are Thine,
W:Our Saviour's here.
W:
W:"Hallelujah!" the church bells ring,
W:"Hallelujah!" the angels sing,
W:"Hallelujah!" from everything.
W:All must draw near.
% --------------------------------- The End ---------------------------------------


